src/images/icon-close.svg

<svg height="24" viewBox="0 0 24 24" width="24" xmlns="http://www.w3.org/2000/svg"><g clip-rule="evenodd" fill-rule="evenodd"><path d="m5.28034 5.21967c.29289-.29289.76776-.29289 1.06066 0l11.9393 11.93933c.2929.2929.2929.7678 0 1.0607s-.7677.2929-1.0606 0l-11.93936-11.93937c-.2929-.29289-.2929-.76777 0-1.06066z"/><path d="m5.21967 18.2197c-.29289-.2929-.29289-.7678 0-1.0607l11.93933-11.93933c.2929-.29289.7678-.29289 1.0607 0s.2929.76777 0 1.06066l-11.93937 11.93937c-.29289.2929-.76777.2929-1.06066 0z"/></g></svg>

<svg width="24" height="24" viewBox="0 0 24 24" xmlns="http://www.w3.org/2000/svg">
<path fill-rule="evenodd" clip-rule="evenodd" d="M5.28034 5.21967C5.57323 4.92678 6.0481 4.92678 6.341 5.21967L18.2803 17.159C18.5732 17.4519 18.5732 17.9268 18.2803 18.2197C17.9874 18.5126 17.5126 18.5126 17.2197 18.2197L5.28034 6.28033C4.98744 5.98744 4.98744 5.51256 5.28034 5.21967Z"/>
<path fill-rule="evenodd" clip-rule="evenodd" d="M5.21967 18.2197C4.92678 17.9268 4.92678 17.4519 5.21967 17.159L17.159 5.21967C17.4519 4.92678 17.9268 4.92678 18.2197 5.21967C18.5126 5.51256 18.5126 5.98744 18.2197 6.28033L6.28033 18.2197C5.98744 18.5126 5.51256 18.5126 5.21967 18.2197Z"/>
</svg>
